Newaita-dark/actions/24/mail-message-new-list.svg

<svg height="24" viewBox="0 0 24 24" width="24" xmlns="http://www.w3.org/2000/svg"><g fill="#e0e0e0"><path d="m3.96875 4.15625c-1.097656 0-1.984375.886719-1.984375 1.984375v11.90625c0 1.101563.886719 1.984375 1.984375 1.984375h8.929688v-1.984375h-7.9375c-.550782 0-.992188-.441406-.992188-.992187v-9.921876c0-.550781.441406-.992187.992188-.992187h13.890624c.550782 0 .992188.441406.992188.992187v4.960938h1.988281v-5.953125c0-1.097656-.886719-1.984375-1.988281-1.984375zm0 0"/><path d="m3.632812 4.410156-1.3125 1.476563 8.929688 7.9375c.375.332031.9375.332031 1.3125 0l8.929688-7.9375-1.308594-1.476563-8.277344 7.355469zm0 0"/><path d="m15.378906 14.078125h5.957032c.273437 0 .496093.222656.496093.496094v.992187c0 .277344-.222656.496094-.496093.496094h-5.957032c-.273437 0-.496094-.21875-.496094-.496094v-.992187c0-.273438.222657-.496094.496094-.496094zm0 0"/><path d="m15.378906 18.046875h5.957032c.273437 0 .496093.222656.496093.496094v.992187c0 .277344-.222656.496094-.496093.496094h-5.957032c-.273437 0-.496094-.21875-.496094-.496094v-.992187c0-.273438.222657-.496094.496094-.496094zm0 0"/></g></svg>

<?xml version="1.0" encoding="UTF-8"?>
<svg xmlns="http://www.w3.org/2000/svg" xmlns:xlink="http://www.w3.org/1999/xlink" width="24px" height="24px" viewBox="0 0 24 24" version="1.1">
<g id="surface1">
<path style=" stroke:none;fill-rule:nonzero;fill:rgb(87.843138%,87.843138%,87.843138%);fill-opacity:1;" d="M 3.96875 4.15625 C 2.871094 4.15625 1.984375 5.042969 1.984375 6.140625 L 1.984375 18.046875 C 1.984375 19.148438 2.871094 20.03125 3.96875 20.03125 L 12.898438 20.03125 L 12.898438 18.046875 L 4.960938 18.046875 C 4.410156 18.046875 3.96875 17.605469 3.96875 17.054688 L 3.96875 7.132812 C 3.96875 6.582031 4.410156 6.140625 4.960938 6.140625 L 18.851562 6.140625 C 19.402344 6.140625 19.84375 6.582031 19.84375 7.132812 L 19.84375 12.09375 L 21.832031 12.09375 L 21.832031 6.140625 C 21.832031 5.042969 20.945312 4.15625 19.84375 4.15625 Z M 3.96875 4.15625 "/>
<path style=" stroke:none;fill-rule:nonzero;fill:rgb(87.843138%,87.843138%,87.843138%);fill-opacity:1;" d="M 3.632812 4.410156 L 2.320312 5.886719 L 11.25 13.824219 C 11.625 14.15625 12.1875 14.15625 12.5625 13.824219 L 21.492188 5.886719 L 20.183594 4.410156 L 11.90625 11.765625 Z M 3.632812 4.410156 "/>
<path style=" stroke:none;fill-rule:nonzero;fill:rgb(87.843138%,87.843138%,87.843138%);fill-opacity:1;" d="M 15.378906 14.078125 L 21.335938 14.078125 C 21.609375 14.078125 21.832031 14.300781 21.832031 14.574219 L 21.832031 15.566406 C 21.832031 15.84375 21.609375 16.0625 21.335938 16.0625 L 15.378906 16.0625 C 15.105469 16.0625 14.882812 15.84375 14.882812 15.566406 L 14.882812 14.574219 C 14.882812 14.300781 15.105469 14.078125 15.378906 14.078125 Z M 15.378906 14.078125 "/>
<path style=" stroke:none;fill-rule:nonzero;fill:rgb(87.843138%,87.843138%,87.843138%);fill-opacity:1;" d="M 15.378906 18.046875 L 21.335938 18.046875 C 21.609375 18.046875 21.832031 18.269531 21.832031 18.542969 L 21.832031 19.535156 C 21.832031 19.8125 21.609375 20.03125 21.335938 20.03125 L 15.378906 20.03125 C 15.105469 20.03125 14.882812 19.8125 14.882812 19.535156 L 14.882812 18.542969 C 14.882812 18.269531 15.105469 18.046875 15.378906 18.046875 Z M 15.378906 18.046875 "/>
</g>
</svg>
